static/img/kroki/179e0f36f08ba55b282db9559fbe4df5.svg

<?xml version="1.0" encoding="us-ascii" standalone="no"?><svg xmlns="http://www.w3.org/2000/svg" xmlns:xlink="http://www.w3.org/1999/xlink" contentStyleType="text/css" height="252px" preserveAspectRatio="none" style="width:288px;height:252px;" version="1.1" viewBox="0 0 288 252" width="288px" zoomAndPan="magnify"><defs/><g><!--class kubernetes_cluster--><g id="elem_kubernetes_cluster"><rect codeLine="22" fill="#3D176E" height="39.7891" id="kubernetes_cluster" rx="2.5" ry="2.5" style="stroke:#000D19;stroke-width:0.5;" width="201" x="14.5" y="7"/><ellipse cx="29.5" cy="26.8945" fill="#ADD1B2" rx="11" ry="11" style="stroke:#181818;stroke-width:1.0;"/><path d="M32.4688,32.5352 Q31.8906,32.832 31.25,32.9727 Q30.6094,33.1289 29.9063,33.1289 Q27.4063,33.1289 26.0781,31.4883 Q24.7656,29.832 24.7656,26.707 Q24.7656,23.582 26.0781,21.9258 Q27.4063,20.2695 29.9063,20.2695 Q30.6094,20.2695 31.25,20.4258 Q31.9063,20.582 32.4688,20.8789 L32.4688,23.5977 Q31.8438,23.0195 31.25,22.7539 Q30.6563,22.4727 30.0313,22.4727 Q28.6875,22.4727 28,23.5508 Q27.3125,24.6133 27.3125,26.707 Q27.3125,28.8008 28,29.8789 Q28.6875,30.9414 30.0313,30.9414 Q30.6563,30.9414 31.25,30.6758 Q31.8438,30.3945 32.4688,29.8164 L32.4688,32.5352 Z " fill="#000000"/><text fill="#D9B8FF" font-family="Helvetica" font-size="17" lengthAdjust="spacing" textLength="159" x="48.5" y="32.7798">kubernetes_cluster</text></g><!--class kubernetes_csi_node--><g id="elem_kubernetes_csi_node"><rect codeLine="24" fill="#3D176E" height="39.7891" id="kubernetes_csi_node" rx="2.5" ry="2.5" style="stroke:#000D19;stroke-width:0.5;" width="216" x="7" y="206.58"/><ellipse cx="22" cy="226.4745" fill="#ADD1B2" rx="11" ry="11" style="stroke:#181818;stroke-width:1.0;"/><path d="M24.9688,232.1152 Q24.3906,232.412 23.75,232.5527 Q23.1094,232.7089 22.4063,232.7089 Q19.9063,232.7089 18.5781,231.0683 Q17.2656,229.412 17.2656,226.287 Q17.2656,223.162 18.5781,221.5058 Q19.9063,219.8495 22.4063,219.8495 Q23.1094,219.8495 23.75,220.0058 Q24.4063,220.162 24.9688,220.4589 L24.9688,223.1777 Q24.3438,222.5995 23.75,222.3339 Q23.1563,222.0527 22.5313,222.0527 Q21.1875,222.0527 20.5,223.1308 Q19.8125,224.1933 19.8125,226.287 Q19.8125,228.3808 20.5,229.4589 Q21.1875,230.5214 22.5313,230.5214 Q23.1563,230.5214 23.75,230.2558 Q24.3438,229.9745 24.9688,229.3964 L24.9688,232.1152 Z " fill="#000000"/><text fill="#D9B8FF" font-family="Helvetica" font-size="17" lengthAdjust="spacing" textLength="174" x="41" y="232.3598">kubernetes_csi_node</text></g><!--class kubernetes_node--><g id="elem_kubernetes_node"><rect codeLine="26" fill="#3D176E" height="39.7891" id="kubernetes_node" rx="2.5" ry="2.5" style="stroke:#000D19;stroke-width:0.5;" width="186" x="95" y="106.79"/><ellipse cx="110" cy="126.6845" fill="#ADD1B2" rx="11" ry="11" style="stroke:#181818;stroke-width:1.0;"/><path d="M112.9688,132.3252 Q112.3906,132.622 111.75,132.7627 Q111.1094,132.9189 110.4063,132.9189 Q107.9063,132.9189 106.5781,131.2783 Q105.2656,129.622 105.2656,126.497 Q105.2656,123.372 106.5781,121.7158 Q107.9063,120.0595 110.4063,120.0595 Q111.1094,120.0595 111.75,120.2158 Q112.4063,120.372 112.9688,120.6689 L112.9688,123.3877 Q112.3438,122.8095 111.75,122.5439 Q111.1563,122.2627 110.5313,122.2627 Q109.1875,122.2627 108.5,123.3408 Q107.8125,124.4033 107.8125,126.497 Q107.8125,128.5908 108.5,129.6689 Q109.1875,130.7314 110.5313,130.7314 Q111.1563,130.7314 111.75,130.4658 Q112.3438,130.1845 112.9688,129.6064 L112.9688,132.3252 Z " fill="#000000"/><text fill="#D9B8FF" font-family="Helvetica" font-size="17" lengthAdjust="spacing" textLength="144" x="129" y="132.5698">kubernetes_node</text></g><!--link kubernetes_cluster to kubernetes_csi_node--><g id="link_kubernetes_cluster_kubernetes_csi_node"><path codeLine="28" d="M103.04,47.14 C94.16,62.6 82.8,85.23 78,106.79 C74.15,124.05 74.15,129.32 78,146.58 C82.32,165.95 91.92,186.18 100.27,201.31 " fill="none" id="kubernetes_cluster-to-kubernetes_csi_node" style="stroke:#1A83AF;stroke-width:2.0;"/><polygon fill="#1A83AF" points="103.04,205.24,102.1033,195.4358,100.5839,200.8848,95.1349,199.3655,103.04,205.24" style="stroke:#1A83AF;stroke-width:2.0;"/></g><!--link kubernetes_cluster to kubernetes_node--><g id="link_kubernetes_cluster_kubernetes_node"><path codeLine="29" d="M129.42,47.22 C141.12,62.89 157.66,85.05 170.19,101.83 " fill="none" id="kubernetes_cluster-to-kubernetes_node" style="stroke:#1A83AF;stroke-width:2.0;"/><polygon fill="#1A83AF" points="173.61,105.41,171.4264,95.8063,170.6168,101.4049,165.0182,100.5953,173.61,105.41" style="stroke:#1A83AF;stroke-width:2.0;"/></g><!--link kubernetes_node to kubernetes_csi_node--><g id="link_kubernetes_node_kubernetes_csi_node"><path codeLine="30" d="M173.58,147.01 C161.88,162.68 145.34,184.84 132.81,201.62 " fill="none" id="kubernetes_node-to-kubernetes_csi_node" style="stroke:#1A83AF;stroke-width:2.0;"/><polygon fill="#1A83AF" points="129.39,205.2,137.9818,200.3853,132.3832,201.1949,131.5736,195.5963,129.39,205.2" style="stroke:#1A83AF;stroke-width:2.0;"/></g><!--SRC=[bP91QuD048Nl-HKBdWDQQTLBmGYXlOJIz5PAMDtPkAYxChisfAN_lPgqORkQX5xdVJFlpJ2bO42WQSsUDD3aW7gcAo5RYhGXAQBQPQfMI3pEAGyZLrmgQQu2Aze0UO3w7Omeg4kybAAe96XDRYnfGOjgYwgJx3ZU89Mwbq0QYyfggdLg38gyCs25OKaUS-wIxb0lP45q1oDC8GFyGNpVPq7Y8bUjBkvz8jRY0qXW7ssb38nYZYmErCMK0s6572twgv_D-4GP4t9BRgtQyp4JIi0_zNL9cTeDDAUrjcsq0GHbzYraewqWYHcF9k77St0nN8vKNV-e4WpeJL5tGnlvd7rDY5fifEeVV58zAHFZvgzUaCPXkdoRtqzD_4-Fonzyhnby0m00]--></g></svg>

<svg xmlns="http://www.w3.org/2000/svg" width="288" height="252" preserveAspectRatio="none" style="width:288px;height:252px"><rect width="201" height="39.789" x="14.5" y="7" fill="#3D176E" rx="2.5" ry="2.5" style="stroke:#000d19;stroke-width:.5"/><circle cx="29.5" cy="26.895" r="11" fill="#ADD1B2" style="stroke:#181818;stroke-width:1"/><path d="M32.469 32.535q-.578.297-1.219.438-.64.156-1.344.156-2.5 0-3.828-1.64-1.312-1.657-1.312-4.782t1.312-4.781q1.328-1.656 3.828-1.656.703 0 1.344.156.656.156 1.219.453v2.719q-.625-.578-1.219-.844-.594-.281-1.219-.281-1.343 0-2.031 1.078-.688 1.062-.688 3.156 0 2.094.688 3.172.688 1.062 2.031 1.062.625 0 1.219-.265.594-.281 1.219-.86v2.72Z"/><text x="48.5" y="32.78" fill="#D9B8FF" font-family="Helvetica" font-size="17" textLength="159">kubernetes_cluster</text><rect width="216" height="39.789" x="7" y="206.58" fill="#3D176E" rx="2.5" ry="2.5" style="stroke:#000d19;stroke-width:.5"/><circle cx="22" cy="226.475" r="11" fill="#ADD1B2" style="stroke:#181818;stroke-width:1"/><path d="M24.969 232.115q-.578.297-1.219.438-.64.156-1.344.156-2.5 0-3.828-1.64-1.312-1.657-1.312-4.782t1.312-4.781q1.328-1.656 3.828-1.656.703 0 1.344.156.656.156 1.219.453v2.719q-.625-.578-1.219-.844-.594-.281-1.219-.281-1.343 0-2.031 1.078-.688 1.062-.688 3.156 0 2.094.688 3.172.688 1.062 2.031 1.062.625 0 1.219-.265.594-.281 1.219-.86v2.72Z"/><text x="41" y="232.36" fill="#D9B8FF" font-family="Helvetica" font-size="17" textLength="174">kubernetes_csi_node</text><rect width="186" height="39.789" x="95" y="106.79" fill="#3D176E" rx="2.5" ry="2.5" style="stroke:#000d19;stroke-width:.5"/><circle cx="110" cy="126.684" r="11" fill="#ADD1B2" style="stroke:#181818;stroke-width:1"/><path d="M112.969 132.325q-.578.297-1.219.438-.64.156-1.344.156-2.5 0-3.828-1.64-1.312-1.657-1.312-4.782t1.312-4.781q1.328-1.656 3.828-1.656.703 0 1.344.156.656.156 1.219.453v2.719q-.625-.579-1.219-.844-.594-.281-1.219-.281-1.344 0-2.031 1.078-.688 1.062-.688 3.156 0 2.094.688 3.172.688 1.062 2.031 1.062.625 0 1.219-.265.594-.281 1.219-.86v2.72Z"/><text x="129" y="132.57" fill="#D9B8FF" font-family="Helvetica" font-size="17" textLength="144">kubernetes_node</text><path fill="none" d="M103.04 47.14C94.16 62.6 82.8 85.23 78 106.79c-3.85 17.26-3.85 22.53 0 39.79 4.32 19.37 13.92 39.6 22.27 54.73" style="stroke:#1a83af;stroke-width:2"/><path fill="#1A83AF" d="m103.04 205.24-.937-9.804-1.52 5.449-5.448-1.52 7.905 5.875z" style="stroke:#1a83af;stroke-width:2"/><path fill="none" d="M129.42 47.22c11.7 15.67 28.24 37.83 40.77 54.61" style="stroke:#1a83af;stroke-width:2"/><path fill="#1A83AF" d="m173.61 105.41-2.184-9.604-.81 5.599-5.598-.81 8.592 4.815z" style="stroke:#1a83af;stroke-width:2"/><path fill="none" d="M173.58 147.01c-11.7 15.67-28.24 37.83-40.77 54.61" style="stroke:#1a83af;stroke-width:2"/><path fill="#1A83AF" d="m129.39 205.2 8.592-4.815-5.599.81-.81-5.599-2.183 9.604z" style="stroke:#1a83af;stroke-width:2"/></svg>
